app/dist/common/images/xi-an-triangle-def.svg

<svg height="18" viewBox="0 0 18 18" width="18" xmlns="http://www.w3.org/2000/svg"><path d="m0 0h18v18h-18z" fill="#f0f3fa"/><path d="m5.26 13-2.06 1h11.55l-1.77-1z" fill="#1f1e50"/><path d="m5.07 12-2.07-2.4 6-6.6 6 6.6-1.8 2.4zm2.52-1v-.63h.7v-.32h-1.39l2.1-2.25 2.12 2.24h-1.42v.32h.7v.64h-2.8z" fill="#104fa5" fill-rule="evenodd"/><path d="m7.59 12h2.82v1h-2.82zm-1.29-3.58 2.7-.83 5.96 2.06.04-.06-6-6.59-5.8 6.37z" fill="#bd1056"/></svg>

<!-- by TradingView --><svg width="18" height="18" viewBox="0 0 18 18" xmlns="http://www.w3.org/2000/svg"><path fill="#F0F3FA" d="M0 0h18v18H0z"/><path d="M5.26 13 3.2 14h11.55l-1.77-1H5.26Z" fill="#1F1E50"/><path fill-rule="evenodd" d="M5.07 12 3 9.6 9 3l6 6.6-1.8 2.4H5.07Zm2.52-1v-.63h.7v-.32H6.9L9 7.8l2.12 2.24H9.7v.32h.7V11H7.6Z" fill="#104FA5"/><path fill="#BD1056" d="M7.59 12h2.82v1H7.59zM6.3 8.42 9 7.59l5.96 2.06.04-.06L9 3 3.2 9.37l3.1-.95Z"/></svg>
